packages/ffe-icons/icons/open/400/sm/mist.svg

<svg xmlns="http://www.w3.org/2000/svg" height="20" viewBox="0 -960 960 960" width="20"><path d="M180-192q-15.3 0-25.65-10.29Q144-212.58 144-227.79t10.35-25.71Q164.7-264 180-264h384q15.3 0 25.65 10.29Q600-243.42 600-228.21t-10.35 25.71Q579.3-192 564-192H180Zm528.26 0q-15.26 0-25.76-10.29-10.5-10.29-10.5-25.5t10.32-25.71q10.33-10.5 25.59-10.5h71.83q15.26 0 25.76 10.29 10.5 10.29 10.5 25.5t-10.32 25.71Q795.35-192 780.09-192h-71.83Zm-528-168q-15.26 0-25.76-10.29-10.5-10.29-10.5-25.5t10.32-25.71q10.33-10.5 25.59-10.5h71.83q15.26 0 25.76 10.29 10.5 10.29 10.5 25.5t-10.32 25.71Q267.35-360 252.09-360h-71.83ZM396-360q-15.3 0-25.65-10.29Q360-380.58 360-395.79t10.35-25.71Q380.7-432 396-432h384q15.3 0 25.65 10.29Q816-411.42 816-396.21t-10.35 25.71Q795.3-360 780-360H396ZM180-528q-15.3 0-25.65-10.29Q144-548.58 144-563.79t10.35-25.71Q164.7-600 180-600h432q15.3 0 25.65 10.29Q648-579.42 648-564.21t-10.35 25.71Q627.3-528 612-528H180Zm576 0q-15.3 0-25.65-10.29Q720-548.58 720-563.79t10.35-25.71Q740.7-600 756-600h24q15.3 0 25.65 10.29Q816-579.42 816-564.21t-10.35 25.71Q795.3-528 780-528h-24ZM180-696q-15.3 0-25.65-10.29Q144-716.58 144-731.79t10.35-25.71Q164.7-768 180-768h168q15.3 0 25.65 10.29Q384-747.42 384-732.21t-10.35 25.71Q363.3-696 348-696H180Zm312 0q-15.3 0-25.65-10.29Q456-716.58 456-731.79t10.35-25.71Q476.7-768 492-768h288q15.3 0 25.65 10.29Q816-747.42 816-732.21t-10.35 25.71Q795.3-696 780-696H492Z"/></svg>

<svg xmlns="http://www.w3.org/2000/svg" height="20" viewBox="0 -960 960 960" width="20"><path d="M180-192q-15.3 0-25.65-10.289-10.35-10.29-10.35-25.5Q144-243 154.35-253.5 164.7-264 180-264h384q15.3 0 25.65 10.289 10.35 10.29 10.35 25.5Q600-213 589.65-202.5 579.3-192 564-192H180Zm528.263 0Q693-192 682.5-202.289q-10.5-10.29-10.5-25.5Q672-243 682.325-253.5 692.65-264 707.912-264h71.825Q795-264 805.5-253.711q10.5 10.29 10.5 25.5Q816-213 805.675-202.5 795.35-192 780.088-192h-71.825Zm-528-168Q165-360 154.5-370.289q-10.5-10.29-10.5-25.5Q144-411 154.325-421.5 164.65-432 179.912-432h71.825Q267-432 277.5-421.711q10.5 10.29 10.5 25.5Q288-381 277.675-370.5 267.35-360 252.088-360h-71.825ZM396-360q-15.3 0-25.65-10.289-10.35-10.29-10.35-25.5Q360-411 370.35-421.5 380.7-432 396-432h384q15.3 0 25.65 10.289 10.35 10.29 10.35 25.5Q816-381 805.65-370.5 795.3-360 780-360H396ZM180-528q-15.3 0-25.65-10.289-10.35-10.29-10.35-25.5Q144-579 154.35-589.5 164.7-600 180-600h432q15.3 0 25.65 10.289 10.35 10.29 10.35 25.5Q648-549 637.65-538.5 627.3-528 612-528H180Zm576 0q-15.3 0-25.65-10.289-10.35-10.29-10.35-25.5Q720-579 730.35-589.5 740.7-600 756-600h24q15.3 0 25.65 10.289 10.35 10.29 10.35 25.5Q816-549 805.65-538.5 795.3-528 780-528h-24ZM180-696q-15.3 0-25.65-10.289-10.35-10.29-10.35-25.5Q144-747 154.35-757.5 164.7-768 180-768h168q15.3 0 25.65 10.289 10.35 10.29 10.35 25.5Q384-717 373.65-706.5 363.3-696 348-696H180Zm312 0q-15.3 0-25.65-10.289-10.35-10.29-10.35-25.5Q456-747 466.35-757.5 476.7-768 492-768h288q15.3 0 25.65 10.289 10.35 10.29 10.35 25.5Q816-717 805.65-706.5 795.3-696 780-696H492Z"/></svg>
